!!!COM: Palestrina, Giovanni Perluigi da
!!!OPR: Missa Sacerdos et pontifex
!!!OMD: Credo
!!!OTL: Et ascendit
**kern	**kern	**kern	**kern
*Itenor	*Itenor	*Icalto	*Icant
!Tenor 2	!Tenor 1	!Altus	!Cantus
*clefGv2	*clefGv2	*clefG2	*clefG2
*k[b-]	*k[b-]	*k[b-]	*k[b-]
*G:dor	*G:dor	*G:dor	*G:dor
*M4/2	*M4/2	*M4/2	*M4/2
=84	=84	=84	=84
1.d	1G	1g	1b-
.	1d	1f	1a
[2f	.	.	.
=85	=85	=85	=85
2f]	1c	1g	1cc
2e	.	.	.
2f	2B-	2b-	2dd
2f	2d	2a	2dd
=86	=86	=86	=86
1g	1c	1cc	1ee
2a	1f	2cc	2ff
2d	.	2f	2ff
=87	=87	=87	=87
2c	0r	2g	2ee
2B-	.	2b-	2dd
2f	.	2.a	2.cc
2c	.	.	.
.	.	4g	4b-
=88	=88	=88	=88
1d	2r	2f	2a
.	2B-	4b-	2dd
.	.	4a	.
1r	2c	4g	2cc
.	.	4f	.
.	2e-	[2g	4b-
.	.	.	4a
=89	=89	=89	=89
0r	2.d	4g]	2b-
.	.	4f	.
.	.	1f	2a
.	4c	.	.
.	2B-	.	1g
.	2c	2e	.
=90	=90	=90	=90
2r	2F	2.f	[0a
2f	2F	.	.
.	.	8e	.
.	.	8d	.
2.e	2.A	1c	.
4d	4B-	.	.
=91	=91	=91	=91
2e	2c	0r	1a]
2f	2d	.	.
2g	2e	.	1r
2a	[2f	.	.
=92	=92	=92	=92
4d	4f]	0r	0r
4e	4e	.	.
4f	1d	.	.
4d	.	.	.
1e	.	.	.
.	2c#	.	.
=93	=93	=93	=93
1f	2d	2r	2r
.	2d	2B-	2b-
1r	2.f	2.d	2.a
.	4e	4e	4g
=94	=94	=94	=94
0r	2d	2f	2a
.	2B-	2g	2b-
.	2A	2a	2cc
.	[2G	[2b-	2dd
=95	=95	=95	=95
1r	4G]	4b-]	4g
.	4F	4a	4a
.	2G	1g	4b-
.	.	.	4g
2r	1d	.	1a
[2d	.	2f#	.
=96	=96	=96	=96
2d]	1G	2g	1b
1g	.	2d	.
.	1c	1e	1cc
[2a	.	.	.
=97	=97	=97	=97
2a]	1d	1f#	1a
2.d	.	.	.
.	1G	2g	1b-
8e	.	.	.
8f#	.	.	.
[2g	.	2d	.
=98	=98	=98	=98
4g]	1G	2.g	1b-
4f	.	.	.
4e	.	.	.
4d	.	4f	.
4c#	1A	4e	[1a
2d	.	4d	.
.	.	2e	.
4c#	.	.	.
=99	=99	=99	=99
2d	2r	2f	1a]
1f	1d	1a	.
.	.	.	1r
2e	2c#	2a	.
=100	=100	=100	=100
1f	1d	1a	0r
2d	2G	2b-	.
2f	2d	2a	.
=101	=101	=101	=101
2e	2c	2a	0r
2d	2B-	2g	.
2e	1A	1cc	.
2f	.	.	.
=102	=102	=102	=102
2.g	1G	2.b-	2r
.	.	.	1dd
4f	.	4a	.
1e	2r	4g	.
.	.	4f	.
.	[2g	2g	2cc#
=103	=103	=103	=103
1d	2g]	2a	1dd
.	2f	2dd	.
1r	2e	2cc	2g
.	4d	2b-	2dd
.	4e	.	.
=104	=104	=104	=104
1r	2f	2a	2cc
.	2g	1g	2b-
2r	1d	.	2.a
[2d	.	4f	.
.	.	4e	4g
=105	=105	=105	=105
2d]	2r	2f	4a
.	.	.	4b-
2c	1g	2e	2cc
1d	.	1d	1a
.	2f#	.	.
=106	=106	=106	=106
2G	2g	2r	1r
2d	4f	1a	.
.	4f	.	.
2c	2e	.	2r
2B-	2d	2g	[2dd
=107	=107	=107	=107
2A	1e	1a	2dd]
2A	.	.	2cc#
2r	1f	2d	1dd
2d	.	2f	.
=108	=108	=108	=108
2c	2r	2e	2g
2B-	1g	2d	2dd
1A	.	4e	[1cc
.	.	4d	.
.	2f#	4c	.
.	.	4d	.
=109	=109	=109	=109
1G	1g	4e	2cc]
.	.	4f#	.
.	.	1g	2b-
2r	1d	.	1a
2d	.	2f#	.
=110	=110	=110	=110
2d	2G	1g	1b
2G	2g	.	.
2.e-	2g	1c	2r
.	2c	.	2gg
4d	.	.	.
=111	=111	=111	=111
1.c	2.e-	1g	2gg
.	.	.	2cc
.	4d	.	.
.	2c	[1g	2ee-
2B	2d	.	2dd
=112	=112	=112	=112
0c	0e-	2g]	0cc
.	.	2c	.
.	.	1g	.
=113	=113	=113	=113
0G	0d	0g	0b
*-	*-	*-	*-
!!!CDT: 1525/^1526/-1594/2/2
!!!OCY: Italia
!!!AGN: Mass (Paraphrase)
!!!AST: renaissance, vocal
!!!ASW: Antiphon
!!!PWK: Masses, Book 7
!!!RNB: Cadence finals: C,D
!!!YOR: Le Opere Complete, v. 23, p. 82
!!!YOO: Rome, Italy: Fratelli Scalera
!!!END: 1992//
!!!EED: John Miller
!!!YEC: Copyright 2000, John Miller
!!!YEN: United States of America
!!!YEM: Rights to all derivative electronic formats reserved.
!!!YEM: Refer to licensing agreement for further details.
!!!YEM: This file must be accompanied by the licensing agreement.
!!!YEM: A copy of the licensing agreement may be found at http://www.music-cog.ohio-state.edu/HumdrumDatabases/Palestrina/license.txt
!!!EMD: converted to Humdrum by Bret Aarden
